X: 1
T: a Man's a Man (for A' That)
C:
R: air
Z: 2014 John Chambers <jc:trillian.mit.edu>
S: page from Concord Slow Scottish Session collection, handwritten by Barbara McOwen
M: C
L: 1/8
K: A
E2 |\
"A"A3B "A7"A2E2 | "D"F2A2 "E7"B2d2 | "A"c3B "A7"A2E2 | "D"F4 "E7"F2E2 | "A"A3B "A7"A2E2 |
"D"F2A2 "E7"B2d2 | "A"c3B "D"A2F2 | "E7"E4 E2 |[| d2 | "A"c3d e2c2 | "E7"d3c B2d2 |
"A"c3d "A7"e2E2 | "D"F4 F2d2 | "A"c3d "F#m"e2c2 | "Bm"f2B2 "E7"B2cd | "A"c3B "D"A2F2 | "E7"E4 E2 |]
